public/images/partners/altarey.svg

<svg width="162" height="61" viewBox="0 0 162 61" fill="none" xmlns="http://www.w3.org/2000/svg">
<path fill-rule="evenodd" clip-rule="evenodd" d="M13.9865 4.67886C14.6001 3.14481 15.3416 1.48292 15.6228 0.945999C15.8785 0.409081 16.2365 0 16.4154 0.0767026C16.5688 0.127838 17.3103 1.66189 18.0773 3.47718C18.4882 4.44956 18.8697 5.34123 19.1394 5.97145L19.1399 5.97266L19.1399 5.97271L19.1401 5.9731C19.3734 6.51848 19.5228 6.86765 19.5347 6.90323C19.5858 6.97994 21.5034 5.44588 23.7789 3.50275C26.08 1.58519 28.0231 0 28.1509 0C28.2532 0 28.381 0.153405 28.4577 0.30681C28.5344 0.485783 28.0998 2.9914 26.3868 11.1219L26.9748 11.173C27.5117 11.2497 27.5629 11.3776 27.5629 14.3178H5.06346V12.7838C5.06346 11.4287 5.11459 11.2497 5.57481 11.2497C5.85605 11.2497 6.08616 11.0707 6.08616 10.8662C6.08616 10.6617 5.62595 8.30945 5.06346 5.62486C4.50097 2.94027 4.04076 0.639188 4.04076 0.511351C4.04076 0.383513 4.27087 0.281243 4.52654 0.30681C4.78222 0.357946 6.69978 1.94313 8.77075 3.83513C10.8417 5.72713 12.6059 7.31231 12.6826 7.36345C12.7849 7.38902 13.3729 6.18734 13.9865 4.67886ZM3.01806 20.454V18.4086V16.3632H29.6083V20.454H27.6907L22.5772 30.681H24.4948V34.7718H23.3442C22.3727 34.7718 22.2193 34.8485 22.3215 35.2065C22.3982 35.4622 23.651 38.8882 27.7163 49.9845L31.6537 50.1124V55.2259H0.972656V50.1124L4.93562 49.9845L7.54351 42.8256C9.00086 38.8882 10.2281 35.4622 10.3048 35.2321C10.4071 34.8485 10.2537 34.7718 8.13156 34.7718V30.681H9.02643C9.51221 30.681 9.92129 30.6299 9.92129 30.5532C9.92129 30.4765 8.79632 28.1754 4.93562 20.454H3.01806ZM66.7323 35.6156L66.809 54.8424L71.2833 54.9702V16.3632H66.6812L66.7323 35.6156ZM46.7385 36.2036L47.2531 32.7569L47.2533 32.7555C48.5482 24.0816 49.5509 17.3655 49.5509 17.207C49.5254 16.9768 50.2668 16.8746 55.0224 16.8746L58.0649 35.3599L59.1338 41.8885L59.1467 41.9671C60.2966 48.9907 61.1447 54.1707 61.1842 54.4077C61.2864 54.9702 61.2609 54.9702 57.0678 54.8424L56.5309 51.2629L56.4257 50.5951L56.3519 50.1258L56.3512 50.1212L56.351 50.1199L56.3508 50.1187L56.3507 50.1181C56.1292 48.7087 55.9632 47.6527 55.9428 47.6323C55.9428 47.6068 54.4088 47.6068 49.1674 47.6835L48.1192 54.8424L46.0226 54.9191C44.8721 54.9446 43.9005 54.9446 43.9005 54.9191C43.9005 54.8935 45.1789 46.4562 46.7385 36.2036ZM79.1837 19.8148V22.7551H76.3713V26.0789H79.1837C79.3115 51.3652 79.3627 52.618 79.7718 53.385C80.0274 53.8964 80.5899 54.3821 81.178 54.6123C81.7149 54.8424 83.2489 55.098 84.6296 55.2003L87.1352 55.3793L87.1096 51.672C85.0387 51.4163 84.2972 51.2118 84.0927 51.0584C83.837 50.8283 83.7859 48.2204 83.7859 38.428V26.0789H87.1096V22.7551H83.7859V16.8746H79.1837V19.8148ZM95.0356 23.3176C95.5469 22.9596 96.4674 22.4994 97.081 22.3205C97.7202 22.1415 99.0497 22.0392 100.021 22.0904C101.3 22.1415 102.194 22.346 103.089 22.7807C103.831 23.1386 104.598 23.7778 104.93 24.2892C105.237 24.8005 105.723 25.951 105.953 26.8459C106.362 28.3544 106.413 29.914 106.413 54.8424L101.939 54.9702V52.6691L101.121 53.5896C100.66 54.1009 99.7656 54.689 99.1264 54.9191C98.3338 55.2003 97.6179 55.277 96.8253 55.1492C96.2117 55.0469 95.2657 54.689 94.7288 54.331C94.1151 53.9219 93.5527 53.2316 93.1436 52.3623C92.7601 51.5697 92.3765 50.0868 92.2231 48.7062C92.0442 47.4533 91.9675 45.3312 92.0442 43.9762C92.1209 42.1609 92.2999 41.2149 92.7601 40.1666C93.118 39.4251 93.8339 38.4024 94.3964 37.8911C94.9589 37.3797 96.5696 36.4337 97.9758 35.769C99.382 35.1042 100.865 34.465 102.016 34.1327L101.913 30.7833C101.837 27.843 101.76 27.3061 101.274 26.6925C100.916 26.1812 100.481 25.951 99.8678 25.8743C99.4076 25.8488 98.7429 25.8743 98.4361 25.951C98.1037 26.0278 97.6946 26.4624 97.4645 26.9737C97.2599 27.4851 97.0043 28.968 96.6975 32.752H92.351L92.53 30.1186C92.6322 28.6868 92.8879 26.9737 93.118 26.3346C93.3481 25.7209 93.6549 24.9283 93.8339 24.596C94.0129 24.2636 94.5498 23.7011 95.0356 23.3176ZM121.242 22.346C120.68 22.4994 119.836 23.0108 119.325 23.5221C118.839 24.0335 118.302 24.6471 118.149 24.9283C117.867 25.3886 117.842 25.2352 117.816 23.9823L117.791 22.4994H113.444V54.9702H117.791C117.791 28.8402 117.791 28.5078 118.302 27.8175C118.583 27.434 119.325 26.8715 119.913 26.5647C120.501 26.2834 121.549 25.951 122.214 25.8743L123.441 25.6954C123.416 22.0903 123.39 22.0136 122.853 22.0392C122.546 22.0392 121.805 22.1926 121.242 22.346ZM131.469 22.8318C131.904 22.6017 132.594 22.346 133.003 22.2182C133.438 22.1159 134.537 22.0648 135.432 22.0904C136.583 22.1415 137.503 22.3716 138.373 22.7807C139.114 23.1386 139.881 23.7778 140.213 24.2892C140.546 24.8005 141.006 25.7721 141.236 26.4624C141.543 27.4595 141.671 29.0447 141.824 38.8627H132.108L132.134 42.2631C132.134 44.1296 132.236 46.6863 132.364 47.9391C132.569 49.8056 132.748 50.368 133.208 50.8283C133.515 51.1351 134.179 51.4674 134.665 51.5442C135.356 51.672 135.739 51.5697 136.276 51.1606C136.787 50.7771 137.043 50.2658 137.222 49.3453C137.375 48.655 137.478 46.8653 137.478 42.6978H141.824V44.5642C141.824 45.5869 141.722 47.4022 141.568 48.5783C141.415 49.78 141.032 51.3396 140.725 52.0299C140.418 52.7203 139.804 53.5896 139.344 53.9986C138.884 54.4077 138.091 54.8424 137.554 54.9702C137.017 55.1236 135.841 55.2259 134.921 55.2514C134.026 55.2514 132.748 55.0725 132.108 54.8679C131.495 54.6378 130.626 54.152 130.216 53.7685C129.807 53.385 129.194 52.4901 128.887 51.7743C128.555 51.0839 128.197 49.7033 128.043 48.7062C127.89 47.7346 127.788 43.1836 127.788 38.607C127.788 34.0048 127.89 29.5816 128.043 28.6356C128.197 27.7408 128.555 26.4624 128.836 25.8232C129.117 25.2096 129.654 24.3659 130.012 23.9568C130.395 23.5477 131.06 23.0619 131.469 22.8318ZM147.567 29.5316C148.005 32.1659 148.538 35.3741 149.111 38.8115C150.594 47.5556 151.795 55.0469 151.795 55.4304C151.795 55.8139 151.693 56.2997 151.565 56.5042C151.386 56.7855 150.696 56.9389 149.392 57.0156L147.449 57.1434V60.3394C153.406 60.2371 153.918 60.1604 154.531 59.7002C154.94 59.3934 155.4 58.7031 155.579 58.1661C155.758 57.6037 157.114 49.6777 158.596 40.5245C160.054 31.3969 161.332 23.5988 161.409 23.2153L161.511 22.525C157.778 22.525 157.165 22.6017 157.165 22.8318C157.165 22.9746 156.872 25.3944 156.481 28.6253L156.48 28.631L156.479 28.6381C156.381 29.4543 156.276 30.3221 156.168 31.218C155.605 35.6411 154.966 41.1637 154.736 43.4904C154.506 45.7915 154.276 47.7602 154.224 47.8369C154.148 47.888 154.071 47.888 153.994 47.8369C153.943 47.7602 153.713 46.0216 153.483 44.0017C153.278 41.9563 152.537 36.2803 151.872 31.3969L150.645 22.4994C147.398 22.4994 146.426 22.6017 146.426 22.704C146.442 22.766 146.891 25.4648 147.567 29.5316ZM14.6771 30.5534L12.1459 25.6444L9.61472 20.7099H22.961L17.9753 30.7068L14.6771 30.5534ZM50.983 34.2607C51.6222 29.4284 52.2358 25.2865 52.3125 25.1075C52.3892 24.9029 52.4914 24.7751 52.5426 24.8518C52.5681 24.9029 53.2329 29.1727 54.0255 34.3374L54.3151 36.2868L54.3154 36.2892C54.9471 40.5415 55.4317 43.804 55.4317 43.8485C55.4317 43.9252 54.1789 43.9763 52.6193 43.9763C50.1137 43.9763 49.8069 43.9508 49.8069 43.5417C49.8069 43.286 50.3182 39.1185 50.983 34.2607ZM134.282 25.8745C133.822 26.0023 133.285 26.3603 133.055 26.6671C132.85 26.9739 132.543 28.0989 132.416 29.1727C132.262 30.221 132.134 32.1385 132.134 33.4425V35.8203H137.503C137.376 28.5847 137.273 27.5875 136.915 26.9228C136.685 26.4626 136.2 25.9768 135.842 25.8234C135.484 25.6955 135.177 25.5933 135.151 25.5933C135.1 25.6188 134.717 25.7467 134.282 25.8745ZM12.0948 42.2633C13.5777 38.2236 14.7794 34.8743 14.7794 34.8487C14.7794 34.8231 15.4441 34.772 17.7196 34.772L20.4809 42.2633C21.9894 46.3797 23.2166 49.8313 23.2166 49.9336C23.2166 50.0358 20.123 50.1125 16.3134 50.1125C11.8902 50.1125 9.41018 50.0358 9.41018 49.8568C9.41018 49.729 10.6118 46.303 12.0948 42.2633ZM100.814 37.5077C100.405 37.7378 99.4846 38.2748 98.8198 38.7094C98.0272 39.2208 97.4136 39.8855 97.0812 40.5247C96.6977 41.394 96.5954 42.161 96.5954 45.0757C96.5954 47.0956 96.7233 49.0898 96.9278 49.7801C97.0812 50.4449 97.4647 51.1352 97.746 51.3398C98.1039 51.5954 98.5641 51.6466 99.28 51.5187C99.9618 51.3994 100.584 51.05 101.146 50.4705L101.965 49.6012C101.965 39.9111 101.888 37.0987 101.786 37.0987C101.658 37.0987 101.249 37.2776 100.814 37.5077Z" fill="white"/>
</svg>

<svg width="162" height="61" viewBox="0 0 162 61" fill="none" xmlns="http://www.w3.org/2000/svg"><path fill-rule="evenodd" clip-rule="evenodd" d="M13.986 4.679c.614-1.535 1.356-3.197 1.637-3.734.255-.537.613-.946.792-.87.154.052.895 1.586 1.662 3.401.411.973.793 1.864 1.062 2.494v.003c.233.545.383.895.395.93.05.077 1.968-1.457 4.244-3.4 2.3-1.918 4.243-3.503 4.37-3.503.103 0 .23.153.308.307.076.179-.358 2.684-2.071 10.815l.588.05c.537.078.588.206.588 3.146h-22.5v-1.534c0-1.355.052-1.534.512-1.534.281 0 .511-.18.511-.384s-.46-2.557-1.023-5.241C4.501 2.94 4.041.639 4.041.51c0-.126.23-.229.487-.203.255.05 2.173 1.636 4.244 3.528 2.072 1.892 3.836 3.477 3.913 3.528.102.026.69-1.176 1.304-2.684zM3.018 20.453v-4.092h26.59v4.09h-1.917l-5.113 10.228h1.918v4.092h-1.15c-.972 0-1.126.076-1.023.435.076.255 1.33 3.681 5.394 14.778l3.938.127v5.114H.973v-5.114l3.963-.127 2.608-7.16a615.86 615.86 0 0 0 2.76-7.593c.103-.383-.05-.46-2.172-.46v-4.09h.894c.486 0 .895-.052.895-.129.001-.076-1.124-2.378-4.984-10.1H3.018zm63.714 15.162.077 19.226 4.473.128V16.363h-4.602l.052 19.253zm-19.994.588.515-3.447v-.001c1.295-8.674 2.298-15.39 2.298-15.55-.025-.23.717-.331 5.472-.331l3.043 18.485 1.069 6.528.013.08 2.037 12.44c.102.562.077.562-4.116.434l-.537-3.58-.104-.667-.074-.47v-.004l-.001-.001v-.002c-.22-1.41-.387-2.465-.407-2.486 0-.025-1.534-.025-6.776.051l-1.048 7.16-2.097.076c-1.15.025-2.122.025-2.122 0 0-.026 1.279-8.464 2.838-18.716zm32.446-16.39v2.941H76.37v3.324h2.814c.128 25.285.179 26.538.588 27.305.255.511.818.997 1.406 1.227.537.23 2.07.486 3.452.588l2.505.18-.025-3.708c-2.071-.256-2.813-.46-3.017-.614-.256-.23-.307-2.838-.307-12.63v-12.35h3.324v-3.323h-3.324v-5.88h-4.602v2.94zm15.852 3.504c.51-.358 1.431-.819 2.045-.998.64-.178 1.97-.28 2.94-.23 1.28.052 2.174.256 3.07.69.74.359 1.508.998 1.84 1.51.307.51.793 1.66 1.023 2.556.41 1.508.46 3.068.46 27.996l-4.474.128v-2.3l-.82.92c-.46.51-1.354 1.1-1.994 1.33-.792.28-1.508.357-2.3.23-.614-.103-1.56-.46-2.097-.82-.615-.408-1.177-1.098-1.586-1.968-.384-.792-.767-2.275-.92-3.656-.18-1.253-.257-3.375-.18-4.73.077-1.815.256-2.761.716-3.81.358-.74 1.074-1.764 1.636-2.275.563-.51 2.174-1.456 3.58-2.12 1.406-.666 2.89-1.305 4.04-1.637l-.103-3.35c-.076-2.94-.153-3.477-.64-4.09-.357-.512-.792-.742-1.405-.819-.46-.025-1.125 0-1.432.077-.332.078-.741.512-.971 1.024-.205.511-.46 1.994-.767 5.778H92.35l.18-2.633c.102-1.433.358-3.146.588-3.785.23-.614.537-1.407.716-1.74.179-.331.716-.894 1.202-1.277zm26.206-.972c-.562.153-1.406.665-1.917 1.176-.486.512-1.023 1.125-1.176 1.406-.283.46-.308.307-.334-.946l-.025-1.483h-4.346v32.47h4.347c0-26.13 0-26.462.512-27.153.28-.383 1.023-.945 1.61-1.252.59-.282 1.637-.614 2.302-.69l1.227-.18c-.024-3.605-.05-3.681-.587-3.656-.307 0-1.048.153-1.61.306zm10.227.486c.434-.23 1.124-.486 1.533-.614.435-.102 1.534-.153 2.43-.128 1.15.052 2.07.282 2.94.69.74.359 1.508.998 1.84 1.51.333.51.793 1.482 1.023 2.172.307.997.435 2.583.588 12.4h-9.716l.026 3.401c0 1.867.102 4.423.23 5.676.205 1.866.384 2.428.844 2.888.307.307.97.64 1.457.716.69.128 1.074.026 1.61-.383.512-.383.768-.894.947-1.815.153-.69.256-2.48.256-6.647h4.346v1.866a37.46 37.46 0 0 1-.256 4.014c-.153 1.202-.536 2.762-.843 3.452-.307.69-.92 1.56-1.38 1.969-.46.408-1.254.842-1.79.97-.538.154-1.714.256-2.634.281-.894.001-2.172-.178-2.812-.382-.613-.23-1.482-.716-1.892-1.1-.41-.383-1.022-1.278-1.33-1.994-.33-.69-.69-2.07-.843-3.068-.153-.971-.255-5.522-.255-10.1 0-4.601.102-9.024.255-9.97.154-.895.512-2.174.793-2.813.28-.613.818-1.457 1.176-1.866.383-.41 1.048-.895 1.457-1.125zm16.097 6.7c.438 2.634.97 5.842 1.544 9.28 1.484 8.744 2.685 16.235 2.685 16.618 0 .384-.102.87-.23 1.074-.18.281-.87.435-2.173.512l-1.943.127v3.196c5.956-.103 6.468-.18 7.08-.64.41-.307.87-.997 1.05-1.534.178-.562 1.534-8.488 3.016-17.641 1.458-9.128 2.736-16.926 2.813-17.31l.1-.69c-3.732 0-4.345.077-4.345.307 0 .143-.293 2.562-.684 5.793v.014c-.1.816-.204 1.684-.312 2.58-.563 4.423-1.202 9.946-1.432 12.272-.23 2.301-.46 4.27-.512 4.347a.192.192 0 0 1-.23 0c-.05-.077-.28-1.815-.51-3.835-.206-2.046-.947-7.722-1.612-12.605l-1.227-8.898c-3.247 0-4.22.102-4.22.204.017.062.466 2.76 1.142 6.828zm-132.89 1.021-2.531-4.909-2.531-4.934H22.96l-4.985 9.997-3.298-.154zm36.306 3.708c.64-4.832 1.253-8.973 1.33-9.152.076-.205.178-.333.23-.256.025.05.69 4.32 1.483 9.485l.29 1.95v.002c.631 4.251 1.116 7.514 1.116 7.558 0 .077-1.253.128-2.813.128-2.506 0-2.813-.025-2.813-.434 0-.256.511-4.424 1.176-9.281zm83.3-8.385c-.46.127-.998.485-1.228.792-.205.307-.512 1.432-.64 2.506-.153 1.048-.28 2.965-.28 4.27v2.377h5.368c-.127-7.235-.23-8.233-.588-8.897-.23-.46-.715-.946-1.073-1.1a9.31 9.31 0 0 0-.69-.23c-.052.026-.435.154-.87.281zM12.094 42.263c1.483-4.04 2.684-7.389 2.684-7.414 0-.027.664-.078 2.94-.078l2.76 7.491c1.51 4.117 2.737 7.568 2.737 7.67 0 .103-3.094.18-6.904.18-4.423 0-6.903-.077-6.903-.256 0-.128 1.202-3.554 2.685-7.594zm88.72-4.755c-.41.23-1.33.767-1.995 1.201-.793.51-1.406 1.176-1.739 1.815-.382.87-.485 1.636-.485 4.55 0 2.02.128 4.015.333 4.705.153.665.537 1.355.818 1.56.358.255.818.307 1.534.179.682-.12 1.304-.47 1.866-1.05l.82-.869c0-9.689-.078-12.501-.18-12.501-.128-.001-.537.178-.972.408z" fill="white"/></svg>
